markets/AUD.svg

<svg width="42" height="42" viewBox="0 0 42 42" fill="none" xmlns="http://www.w3.org/2000/svg">
<circle cx="21" cy="21" r="21" fill="#06061B"/>
<path d="M18.1834 24.9237H12.2669L11.1781 28.1696H8.4458L13.6433 13.6043H16.9097L22.1072 28.1696H19.2722L18.1834 24.9237ZM17.3822 22.5818L15.2251 16.1928L13.0681 22.5818H17.3822Z" fill="white"/>
<path d="M27.5979 28.108C26.9132 28.0532 26.2695 27.9025 25.6669 27.656C25.0642 27.3958 24.5438 27.0603 24.1055 26.6494C23.6673 26.2385 23.318 25.766 23.0578 25.2319C22.7976 24.6978 22.6607 24.1157 22.647 23.4857H25.1738C25.2012 24.1568 25.434 24.7183 25.8723 25.1703C26.3242 25.6085 26.8995 25.8619 27.5979 25.9304V21.8628L26.6324 21.719C25.523 21.5683 24.6397 21.1506 23.9823 20.4658C23.3386 19.781 23.0167 18.9113 23.0167 17.8568C23.0167 17.309 23.14 16.7954 23.3865 16.316C23.633 15.823 23.9686 15.3916 24.3932 15.0218C24.8177 14.6383 25.3039 14.3302 25.8517 14.0973C26.4133 13.8645 26.9953 13.7207 27.5979 13.6659V11.7554H29.0976V13.707C29.7139 13.7892 30.2823 13.9535 30.8027 14.2C31.3232 14.4329 31.7751 14.7342 32.1586 15.104C32.5421 15.4737 32.8434 15.8983 33.0625 16.3777C33.2953 16.857 33.4254 17.3706 33.4528 17.9184H30.926C30.8986 17.4254 30.7137 17.0008 30.3713 16.6447C30.0426 16.2749 29.618 16.0216 29.0976 15.8846V19.6441L29.7961 19.7468C30.3165 19.829 30.8096 19.9728 31.2752 20.1782C31.7409 20.3836 32.1449 20.6507 32.4873 20.9794C32.8434 21.3081 33.1173 21.7053 33.309 22.1709C33.5145 22.6229 33.6172 23.1365 33.6172 23.7117C33.6172 24.328 33.5008 24.8895 33.2679 25.3962C33.0488 25.8893 32.7338 26.3275 32.3229 26.711C31.9258 27.0808 31.4464 27.389 30.8849 27.6355C30.3371 27.8683 29.7413 28.019 29.0976 28.0874V30.2034H27.5979V28.108ZM29.0976 25.9098C29.7413 25.8003 30.2412 25.5674 30.5973 25.2114C30.9534 24.8416 31.1314 24.3759 31.1314 23.8144C31.1314 23.294 30.9602 22.9105 30.6178 22.664C30.2754 22.4037 29.8851 22.2325 29.4469 22.1504L29.0976 22.0887V25.9098ZM27.5979 15.823C27.0227 15.9052 26.5297 16.1174 26.1188 16.4598C25.7216 16.7885 25.523 17.2336 25.523 17.7952C25.523 18.2745 25.6532 18.6374 25.9134 18.884C26.1873 19.1168 26.5434 19.2674 26.9816 19.3359L27.5979 19.4386V15.823Z" fill="white"/>
</svg>

<svg xmlns="http://www.w3.org/2000/svg" width="42" height="42" fill="none"><circle cx="21" cy="21" r="21" fill="#06061B"/><path fill="#fff" d="M18.183 24.924h-5.916l-1.089 3.246H8.446l5.197-14.566h3.267l5.197 14.566h-2.835l-1.089-3.246Zm-.8-2.342-2.158-6.39-2.157 6.39h4.314ZM27.598 28.108a6.421 6.421 0 0 1-1.931-.452 5.37 5.37 0 0 1-1.562-1.007 4.827 4.827 0 0 1-1.047-1.417 4.144 4.144 0 0 1-.411-1.746h2.527c.027.67.26 1.232.698 1.684.452.438 1.027.692 1.726.76v-4.067l-.966-.144c-1.109-.15-1.992-.568-2.65-1.253-.643-.685-.965-1.555-.965-2.61 0-.547.123-1.06.37-1.54a4.185 4.185 0 0 1 1.006-1.294 5.18 5.18 0 0 1 1.459-.925 5.939 5.939 0 0 1 1.746-.431v-1.91h1.5v1.951a5.725 5.725 0 0 1 1.705.493c.52.233.972.534 1.356.904.383.37.684.794.904 1.274.232.479.362.993.39 1.54h-2.527a1.937 1.937 0 0 0-.555-1.273 2.514 2.514 0 0 0-1.273-.76v3.76l.698.102c.52.082 1.014.226 1.48.431.465.206.869.473 1.211.801.356.33.63.726.822 1.192.206.452.308.966.308 1.54 0 .617-.116 1.179-.35 1.685-.218.493-.533.931-.944 1.315-.397.37-.877.678-1.438.925a6.226 6.226 0 0 1-1.787.451v2.116h-1.5v-2.095Zm1.5-2.198c.643-.11 1.143-.343 1.5-.699.355-.37.533-.835.533-1.397 0-.52-.17-.904-.513-1.15a2.74 2.74 0 0 0-1.171-.514l-.35-.061v3.82Zm-1.5-10.087a2.9 2.9 0 0 0-1.48.637c-.396.328-.595.774-.595 1.335 0 .48.13.842.39 1.089.274.233.63.383 1.069.452l.616.103v-3.616Z"/></svg>
